svg/instagram-square.svg

<svg xmlns="http://www.w3.org/2000/svg" viewBox="0 0 64 64" enable-background="new 0 0 64 64"><style type="text/css">.st0{fill:#343434;}</style><path class="st0" d="M61 0h-58c-1.7 0-3 1.3-3 3v58c0 1.7 1.3 3 3 3h58c1.7 0 3-1.3 3-3v-58c0-1.7-1.3-3-3-3zm-9 40.1c0 6.6-5.3 11.9-11.9 11.9h-16.2c-6.5 0-11.7-5.2-11.9-11.6v-16.8c.2-6.5 5.5-11.6 11.9-11.6h16.2c6.6 0 11.9 5.3 11.9 11.9v16.2zM40.1 16h-16.2c-4.4 0-7.9 3.5-7.9 7.9v16.2c0 4.4 3.5 7.9 7.9 7.9h16.2c4.4 0 7.9-3.5 7.9-7.9v-16.2c0-4.3-3.6-7.9-7.9-7.9zm-7.6 27c-5.8 0-10.5-4.7-10.5-10.5s4.7-10.5 10.5-10.5 10.5 4.7 10.5 10.5-4.7 10.5-10.5 10.5zm10-19c-1.4 0-2.5-1.1-2.5-2.5s1.1-2.5 2.5-2.5 2.5 1.1 2.5 2.5-1.1 2.5-2.5 2.5z"/><circle class="st0" cx="32.5" cy="32.5" r="6.4"/></svg>

<?xml version="1.0" encoding="utf-8"?>
<!-- Generator: Adobe Illustrator 21.0.0, SVG Export Plug-In . SVG Version: 6.00 Build 0)  -->
<svg version="1.1" id="Layer_1" xmlns="http://www.w3.org/2000/svg" xmlns:xlink="http://www.w3.org/1999/xlink" x="0px" y="0px"
	 viewBox="0 0 64 64" style="enable-background:new 0 0 64 64;" xml:space="preserve">
<style type="text/css">
	.st0{fill:#343434;}
</style>
<g>
	<path class="st0" d="M61,0H3C1.3,0,0,1.3,0,3v58c0,1.7,1.3,3,3,3h58c1.7,0,3-1.3,3-3V3C64,1.3,62.7,0,61,0z M52,40.1
		C52,46.7,46.7,52,40.1,52H23.9c-6.5,0-11.7-5.2-11.9-11.6V23.6C12.2,17.1,17.5,12,23.9,12h16.2C46.7,12,52,17.3,52,23.9V40.1z"/>
	<path class="st0" d="M40.1,16H23.9c-4.4,0-7.9,3.5-7.9,7.9v16.2c0,4.4,3.5,7.9,7.9,7.9h16.2c4.4,0,7.9-3.5,7.9-7.9V23.9
		C48,19.6,44.4,16,40.1,16z M32.5,43C26.7,43,22,38.3,22,32.5C22,26.7,26.7,22,32.5,22S43,26.7,43,32.5S38.3,43,32.5,43z M42.5,24
		c-1.4,0-2.5-1.1-2.5-2.5c0-1.4,1.1-2.5,2.5-2.5c1.4,0,2.5,1.1,2.5,2.5C45,22.9,43.9,24,42.5,24z"/>
	<circle class="st0" cx="32.5" cy="32.5" r="6.4"/>
</g>
</svg>
